wp-content/themes/cls/dist/assets/images/home-graphic-01.svg

<?xml version="1.0" encoding="UTF-8"?>
<svg width="80px" height="64px" viewBox="0 0 80 64" version="1.1" xmlns="http://www.w3.org/2000/svg" xmlns:xlink="http://www.w3.org/1999/xlink">
    <!-- Generator: Sketch 59 (86127) - https://sketch.com -->
    <title>home-graphic-01</title>
    <desc>Created with Sketch.</desc>
    <defs>
        <polygon id="path-1" points="0.13207982 0.127529995 54.430035 0.127529995 54.430035 54.425076 0.13207982 54.425076"></polygon>
        <polygon id="path-3" points="0 0.82204197 69.1726205 0.82204197 69.1726205 38.6095306 0 38.6095306"></polygon>
    </defs>
    <g id="Design" stroke="none" stroke-width="1" fill="none" fill-rule="evenodd">
        <g id="Homepage---Mobile" transform="translate(-274.000000, -657.000000)">
            <g id="home-graphic-01" transform="translate(274.000000, 657.000000)">
                <polygon id="Fill-1" fill="#173C6F" points="0.405404985 12.9561115 0.405404985 62.3886097 2.86708489 62.3886097 2.86708489 15.4177914 21.2150242 15.4177914 23.2321041 22.5372412 57.7786929 22.5372412 56.6005029 25.2282411 58.8550928 26.215721 61.5472627 20.0743913 25.0935741 20.0743913 23.0764942 12.9561115"></polygon>
                <path d="M0.124253995,12.6739075 L0.124253995,62.6703457 L3.14987388,62.6703457 L3.14987388,15.7006974 L21.0017332,15.7006974 L23.0199832,22.8201472 L57.3489519,22.8201472 L56.2292619,25.3719171 L59.0009918,26.586377 L61.9786417,19.7933573 L25.3061631,19.7933573 L23.2890831,12.6739075 L0.124253995,12.6739075 Z M0.688193975,13.2378475 L22.8632032,13.2378475 L24.8802831,20.3561273 L61.1151818,20.3561273 L58.7096618,25.8434271 L56.9710419,25.0829271 L58.2100719,22.2550372 L23.4446931,22.2550372 L21.4276132,15.1355874 L2.58593391,15.1355874 L2.58593391,62.1075757 L0.688193975,62.1075757 L0.688193975,13.2378475 Z" id="Fill-2" fill="#173C6F"></path>
                <g id="Group-5" transform="translate(25.569999, 0.000000)">
                    <mask id="mask-2" fill="white">
                        <use xlink:href="#path-1"></use>
                    </mask>
                    <g id="Clip-4"></g>
                    <path d="M2.28196688,0.126827995 L19.6623162,17.5083474 L3.55609683,33.6157368 C-1.106353,38.2770166 -0.992863,45.9475363 3.80881682,50.7492161 C8.60932665,55.549726 16.2798464,55.663216 20.9422962,51.0019361 L37.0496856,34.8945467 L54.430035,52.2760661 L54.430035,52.2748961 L53.673045,0.883817968 L2.28196688,0.126827995 Z" id="Fill-3" fill="#B7A9D3" mask="url(#mask-2)"></path>
                </g>
                <path d="M3.95834385,60.5155568 L52.4864321,60.5155568 L65.2136916,28.056248 L16.6867734,28.056248 L3.95834385,60.5155568 Z M54.166552,62.9035267 L0.405053985,62.9035267 L15.0066534,25.6682781 L68.7669815,25.6682781 L54.166552,62.9035267 Z" id="Fill-6" fill="#173C6F"></path>
                <g id="Group-10" transform="translate(0.000000, 24.569999)">
                    <mask id="mask-4" fill="white">
                        <use xlink:href="#path-3"></use>
                    </mask>
                    <g id="Clip-9"></g>
                    <path d="M4.36398284,35.6693207 L52.2977111,35.6693207 L64.8085206,3.76225186 L16.8747924,3.76225186 L4.36398284,35.6693207 Z M52.6744511,36.2215607 L3.55317287,36.2215607 L16.4980524,3.21001188 L65.6193306,3.21001188 L52.6744511,36.2215607 Z M0.81069297,38.0572906 L53.977831,38.0572906 L68.3618105,1.37428195 L15.1946724,1.37428195 L0.81069297,38.0572906 Z M54.354571,38.6095306 L-0.000116999996,38.6095306 L0.148472995,38.2327906 L14.8179325,0.82204197 L69.1726205,0.82204197 L69.0252005,1.19878196 L54.354571,38.6095306 Z" id="Fill-8" fill="#173C6F" mask="url(#mask-4)"></path>
                </g>
            </g>
        </g>
    </g>
</svg>

<svg width="80" height="64" xmlns="http://www.w3.org/2000/svg" xmlns:xlink="http://www.w3.org/1999/xlink"><defs><path id="a" d="M.132.128H54.43v54.297H.132z"/><path id="c" d="M0 .822h69.173V38.61H0z"/></defs><g fill="none" fill-rule="evenodd"><path fill="#173C6F" d="M.405 12.956V62.39h2.462V15.418h18.348l2.017 7.12H57.78l-1.178 2.69 2.254.988 2.692-6.142H25.094l-2.018-7.118z"/><path d="M.124 12.674V62.67H3.15V15.7h17.852l2.018 7.12h34.329l-1.12 2.552 2.772 1.214 2.978-6.793H25.306l-2.017-7.12H.124zm.564.564h22.175l2.017 7.118h36.235l-2.405 5.487-1.739-.76 1.24-2.828H23.444l-2.017-7.12H2.586v46.973H.688v-48.87z" fill="#173C6F"/><g transform="translate(25.57)"><mask id="b" fill="#fff"><use xlink:href="#a"/></mask><path d="M2.282.127l17.38 17.381L3.556 33.616c-4.662 4.661-4.549 12.332.253 17.133 4.8 4.8 12.47 4.914 17.133.253L37.05 34.895l17.38 17.381v-.001L53.673.884 2.282.127z" fill="#B7A9D3" mask="url(#b)"/></g><path d="M3.958 60.516h48.528l12.728-32.46H16.687L3.958 60.516zm50.209 2.388H.405l14.602-37.236h53.76l-14.6 37.236z" fill="#173C6F"/><g transform="translate(0 24.57)"><mask id="d" fill="#fff"><use xlink:href="#c"/></mask><path d="M4.364 35.67h47.934l12.51-31.908H16.876L4.364 35.67zm48.31.552H3.554L16.497 3.21H65.62L52.674 36.222zM.811 38.057h53.167L68.362 1.374H15.195L.81 38.057zm53.544.553H0l.148-.377L14.818.822h54.355l-.148.377-14.67 37.41z" fill="#173C6F" mask="url(#d)"/></g></g></svg>
